X: 41456
T: Two Pauls
R: jig
M: 6/8
K: Dmajor
|:d3 dAF|DFA def|g3 fed|BdB AFE|
DFA dcd|dAF DFA|def gfe|1 fdc d3:|2 fdc dfg||
|:afd DFA|dfa baf|b3 baf|dfb baf|
afd DFA|dfa baf|baf afe|fdc d3:|
|:DFA def|g2 e fdA|BdB AFD|DEF EDC|
DFA def|g2 e fdA|BdB AFD|EDC D3:|

